epam-assets/icon-sources/18/action-full_width.svg

<svg xmlns="http://www.w3.org/2000/svg" width="18" height="18" fill="none" viewBox="0 0 18 18">
  <path fill="#6C6F80" fill-rule="evenodd" d="M2.25 15H.75V3h1.5v12Zm15 0h-1.5V3h1.5v12Zm-10.5-3V9.75h4.5V12l3-3-3-3v2.25h-4.5V6l-3 3 3 3Z" clip-rule="evenodd"/>
</svg>

<svg width="18" height="18" viewBox="0 0 18 18" fill="none" xmlns="http://www.w3.org/2000/svg">
<g id="18/action-full_width">
<path id="icon" fill-rule="evenodd" clip-rule="evenodd" d="M2.25 15H0.75V3H2.25V15ZM17.25 15H15.75V3H17.25V15ZM6.75 12V9.75H8.25H9.75H11.25V12L14.25 9L11.25 6V8.25H9.75H8.25H6.75V6L3.75 9L6.75 12Z" fill="#6C6F80"/>
</g>
</svg>
